packages/icons/src/variables-blue.svg

<svg fill="none" viewBox="0 0 64 64" xmlns="http://www.w3.org/2000/svg"><path clip-rule="evenodd" d="m17.576 6.92624c0-.55229-.4477-1-1-1s-1 .44771-1 1v5.99996c0 .2653.1054.5196.2929.7071.1875.1876.4419.2929.7071.2929h6c.5523 0 1-.4477 1-1 0-.5522-.4477-1-1-1h-3.7114c2.0952-1.3812 4.4453-2.45515 7.0049-3.141 10.7937-2.89217 21.8436 2.0543 27.1004 11.352.2718.4808.8819.6502 1.3626.3784.4808-.2718.6502-.8819.3784-1.3627-5.6947-10.0721-17.6631-15.43348-29.359-12.29956-2.8465.76271-5.4571 1.97016-7.7759 3.52806zm-6.5251 36.61746c-.2659-.484-.8739-.6609-1.35791-.3949-.48404.2659-.66086.8739-.39493 1.3579 5.63094 10.2495 17.71044 15.7371 29.51244 12.5748 3.025-.8106 5.7837-2.1235 8.2089-3.8255v3.4847c0 .5523.4477 1 1 1 .5522 0 1-.4477 1-1v-6c0-.2652-.1054-.5196-.2929-.7071-.1876-.1875-.4419-.2929-.7071-.2929h-6c-.5523 0-1 .4477-1 1s.4477 1 1 1h3.6759c-2.194 1.5106-4.6797 2.6794-7.4025 3.4089-10.8916 2.9184-22.044-2.1447-27.2419-11.6059zm18.1014-30.5406c-.8284 0-1.5.6716-1.5 1.5v2.6889c-1.2894.3505-2.5111.8647-3.6413 1.5186l-1.9089-1.9094c-.5858-.586-1.5358-.586-2.1216 0l-3.535 3.536c-.5856.5858-.5856 1.5353 0 2.121l1.9188 1.9195c-.647 1.1275-1.1551 2.3453-1.5009 3.6299h-2.715c-.8284 0-1.5.6716-1.5 1.5v5c0 .8285.6716 1.5 1.5 1.5h2.715c.346 1.2854.8545 2.5039 1.502 3.632l-1.917 1.9171c-.5858.5858-.5858 1.5355 0 2.1213l3.5355 3.5355c.5858.5858 1.5355.5858 2.1213 0l1.9078-1.9077c1.1297.6534 2.3507 1.1672 3.6393 1.5175v2.6889c0 .8284.6716 1.5 1.5 1.5h5c.8284 0 1.5-.6716 1.5-1.5v-2.6691c1.2966-.3456 2.5255-.8565 3.6627-1.5085l1.8819 1.8825c.5858.586 1.5358.586 2.1216 0l3.535-3.5361c.5856-.5857.5856-1.5352 0-2.121l-1.8698-1.8704c.6612-1.1421 1.1798-2.3776 1.5309-3.682h2.6428c.8285 0 1.5-.6715 1.5-1.5v-5c0-.8284-.6715-1.5-1.5-1.5h-2.6428c-.3505-1.3021-.8679-2.5355-1.5275-3.676l1.8733-1.8732c.5858-.5858.5858-1.5355 0-2.1213l-3.5356-3.5356c-.5857-.5857-1.5355-.5857-2.1213 0l-1.8825 1.8826c-1.1389-.6536-2.3698-1.1657-3.6687-1.5119v-2.6691c0-.8284-.6716-1.5-1.5-1.5zm.5 4.5705v-2.5705h4v2.5527c0 .7161.4999 1.3084 1.1629 1.4674 1.3573.3256 2.6341.8585 3.7954 1.564.5809.3529 1.35.2857 1.8544-.2187l1.7992-1.7992 2.8284 2.8284-1.7908 1.7908c-.5058.5059-.5718 1.2775-.216 1.8588.7115 1.1622 1.2498 2.4412 1.5797 3.8013.1603.6611.7519 1.159 1.4665 1.159h2.5254v4h-2.5254c-.7146 0-1.3062.4979-1.4665 1.1591-.3304 1.3622-.8698 2.6429-1.5828 3.8065-.3562.5812-.2904 1.3532.2154 1.8592l1.7876 1.7881-2.828 2.8289-1.7983-1.7989c-.5042-.5044-1.2731-.5717-1.854-.2192-1.1599.7039-2.435 1.2357-3.7902 1.5608-.663.159-1.1629.7513-1.1629 1.4674v2.5527h-4v-2.5705c0-.713-.4959-1.3039-1.1553-1.4656-1.3478-.3305-2.6155-.8659-3.7684-1.5716-.5812-.3558-1.3529-.2898-1.8588.216l-1.8252 1.8253-2.8285-2.8285 1.8337-1.8336c.5044-.5044.5716-1.2735.2187-1.8544-.6997-1.1519-1.2298-2.4175-1.556-3.7626-.1604-.6612-.752-1.1591-1.4665-1.1591h-2.5976v-4h2.5976c.7145 0 1.3061-.4979 1.4665-1.159.326-1.3444.8557-2.6094 1.5549-3.7608.3527-.5808.2856-1.3497-.2186-1.854l-1.8355-1.8361 2.828-2.8288 1.8264 1.827c.5059.506 1.2778.572 1.8592.216 1.1533-.7063 2.4216-1.242 3.7701-1.5727.6594-.1617 1.1553-.7526 1.1553-1.4656zm-6.7518 14.4341c0-4.8519 3.9344-8.7856 8.7884-8.7856s8.7884 3.9337 8.7884 8.7856c0 4.8518-3.9344 8.7855-8.7884 8.7855s-8.7884-3.9337-8.7884-8.7855zm8.7884-10.7856c-5.958 0-10.7884 4.8286-10.7884 10.7856 0 5.9569 4.8304 10.7855 10.7884 10.7855s10.7884-4.8286 10.7884-10.7855c0-5.957-4.8304-10.7856-10.7884-10.7856z" fill="#0278d5" fill-rule="evenodd"/></svg>

<svg viewBox="0 0 64 64" fill="none" xmlns="http://www.w3.org/2000/svg">
<path fill-rule="evenodd" clip-rule="evenodd" d="M17.576 6.92624C17.576 6.37395 17.1283 5.92624 16.576 5.92624C16.0237 5.92624 15.576 6.37395 15.576 6.92624V12.9262C15.576 13.1915 15.6814 13.4458 15.8689 13.6333C16.0564 13.8209 16.3108 13.9262 16.576 13.9262H22.576C23.1283 13.9262 23.576 13.4785 23.576 12.9262C23.576 12.374 23.1283 11.9262 22.576 11.9262H18.8646C20.9598 10.545 23.3099 9.47105 25.8695 8.7852C36.6632 5.89303 47.7131 10.8395 52.9699 20.1372C53.2417 20.618 53.8518 20.7874 54.3325 20.5156C54.8133 20.2438 54.9827 19.6337 54.7109 19.1529C49.0162 9.0808 37.0478 3.71942 25.3519 6.85334C22.5054 7.61605 19.8948 8.8235 17.576 10.3814V6.92624ZM11.0509 43.5437C10.785 43.0597 10.177 42.8828 9.69299 43.1488C9.20895 43.4147 9.03213 44.0227 9.29806 44.5067C14.929 54.7562 27.0085 60.2438 38.8105 57.0815C41.8355 56.2709 44.5942 54.958 47.0194 53.256V56.7407C47.0194 57.293 47.4671 57.7407 48.0194 57.7407C48.5716 57.7407 49.0194 57.293 49.0194 56.7407V50.7407C49.0194 50.4755 48.914 50.2211 48.7265 50.0336C48.5389 49.8461 48.2846 49.7407 48.0194 49.7407H42.0194C41.4671 49.7407 41.0194 50.1884 41.0194 50.7407C41.0194 51.293 41.4671 51.7407 42.0194 51.7407H45.6953C43.5013 53.2513 41.0156 54.4201 38.2928 55.1496C27.4012 58.068 16.2488 53.0049 11.0509 43.5437ZM29.1523 13.0031C28.3239 13.0031 27.6523 13.6747 27.6523 14.5031V17.192C26.3629 17.5425 25.1412 18.0567 24.011 18.7106L22.1021 16.8012C21.5163 16.2152 20.5663 16.2152 19.9805 16.8012L16.4455 20.3372C15.8599 20.923 15.8599 21.8725 16.4455 22.4582L18.3643 24.3777C17.7173 25.5052 17.2092 26.723 16.8634 28.0076H14.1484C13.32 28.0076 12.6484 28.6792 12.6484 29.5076V34.5076C12.6484 35.3361 13.32 36.0076 14.1484 36.0076H16.8634C17.2094 37.293 17.7179 38.5115 18.3654 39.6396L16.4484 41.5567C15.8626 42.1425 15.8626 43.0922 16.4484 43.678L19.9839 47.2135C20.5697 47.7993 21.5194 47.7993 22.1052 47.2135L24.013 45.3058C25.1427 45.9592 26.3637 46.473 27.6523 46.8233V49.5122C27.6523 50.3406 28.3239 51.0122 29.1523 51.0122H34.1523C34.9807 51.0122 35.6523 50.3406 35.6523 49.5122V46.8431C36.9489 46.4975 38.1778 45.9866 39.315 45.3346L41.1969 47.2171C41.7827 47.8031 42.7327 47.8031 43.3185 47.2171L46.8535 43.681C47.4391 43.0953 47.4391 42.1458 46.8535 41.56L44.9837 39.6896C45.6449 38.5475 46.1635 37.312 46.5146 36.0076H49.1574C49.9859 36.0076 50.6574 35.3361 50.6574 34.5076V29.5076C50.6574 28.6792 49.9859 28.0076 49.1574 28.0076H46.5146C46.1641 26.7055 45.6467 25.4721 44.9871 24.3316L46.8604 22.4584C47.4462 21.8726 47.4462 20.9229 46.8604 20.3371L43.3248 16.8015C42.7391 16.2158 41.7893 16.2158 41.2035 16.8015L39.321 18.6841C38.1821 18.0305 36.9512 17.5184 35.6523 17.1722V14.5031C35.6523 13.6747 34.9807 13.0031 34.1523 13.0031H29.1523ZM29.6523 17.5736V15.0031H33.6523V17.5558C33.6523 18.2719 34.1522 18.8642 34.8152 19.0232C36.1725 19.3488 37.4493 19.8817 38.6106 20.5872C39.1915 20.9401 39.9606 20.8729 40.465 20.3685L42.2642 18.5693L45.0926 21.3977L43.3018 23.1885C42.796 23.6944 42.73 24.466 43.0858 25.0473C43.7973 26.2095 44.3356 27.4885 44.6655 28.8486C44.8258 29.5097 45.4174 30.0076 46.132 30.0076H48.6574V34.0076H46.132C45.4174 34.0076 44.8258 34.5055 44.6655 35.1667C44.3351 36.5289 43.7957 37.8096 43.0827 38.9732C42.7265 39.5544 42.7923 40.3264 43.2981 40.8324L45.0857 42.6205L42.2577 45.4494L40.4594 43.6505C39.9552 43.1461 39.1863 43.0788 38.6054 43.4313C37.4455 44.1352 36.1704 44.667 34.8152 44.9921C34.1522 45.1511 33.6523 45.7434 33.6523 46.4595V49.0122H29.6523V46.4417C29.6523 45.7287 29.1564 45.1378 28.497 44.9761C27.1492 44.6456 25.8815 44.1102 24.7286 43.4045C24.1474 43.0487 23.3757 43.1147 22.8698 43.6205L21.0446 45.4458L18.2161 42.6173L20.0498 40.7837C20.5542 40.2793 20.6214 39.5102 20.2685 38.9293C19.5688 37.7774 19.0387 36.5118 18.7125 35.1667C18.5521 34.5055 17.9605 34.0076 17.246 34.0076H14.6484V30.0076H17.246C17.9605 30.0076 18.5521 29.5097 18.7125 28.8486C19.0385 27.5042 19.5682 26.2392 20.2674 25.0878C20.6201 24.507 20.553 23.7381 20.0488 23.2338L18.2133 21.3977L21.0413 18.5689L22.8677 20.3959C23.3736 20.9019 24.1455 20.9679 24.7269 20.6119C25.8802 19.9056 27.1485 19.3699 28.497 19.0392C29.1564 18.8775 29.6523 18.2866 29.6523 17.5736ZM22.9005 32.0077C22.9005 27.1558 26.8349 23.2221 31.6889 23.2221C36.5429 23.2221 40.4773 27.1558 40.4773 32.0077C40.4773 36.8595 36.5429 40.7932 31.6889 40.7932C26.8349 40.7932 22.9005 36.8595 22.9005 32.0077ZM31.6889 21.2221C25.7309 21.2221 20.9005 26.0507 20.9005 32.0077C20.9005 37.9646 25.7309 42.7932 31.6889 42.7932C37.6469 42.7932 42.4773 37.9646 42.4773 32.0077C42.4773 26.0507 37.6469 21.2221 31.6889 21.2221Z" fill="#0278D5"/>
</svg>
